public/assets/icons/sass.svg

<?xml version="1.0" encoding="utf-8"?>
<!-- Generator: Adobe Illustrator 17.1.0, SVG Export Plug-In . SVG Version: 6.00 Build 0)  -->
<!DOCTYPE svg PUBLIC "-//W3C//DTD SVG 1.1//EN" "http://www.w3.org/Graphics/SVG/1.1/DTD/svg11.dtd">
<svg version="1.1" id="Layer_1" xmlns="http://www.w3.org/2000/svg" xmlns:xlink="http://www.w3.org/1999/xlink" x="0px" y="0px"
	 viewBox="0 0 547.8 410.6" enable-background="new 0 0 547.8 410.6" xml:space="preserve">
<path fill="#CD6799" d="M471.4,236c-19.1,0.1-35.7,4.7-49.6,11.5c-5.1-10.1-10.2-19.1-11.1-25.7c-1-7.7-2.2-12.4-1-21.6
	c1.2-9.2,6.6-22.3,6.5-23.3s-1.2-5.7-12.2-5.8c-11-0.1-20.5,2.1-21.6,5c-1.1,2.9-3.2,9.5-4.6,16.3c-1.9,10-22,45.7-33.5,64.4
	c-3.7-7.3-6.9-13.7-7.6-18.8c-1-7.7-2.2-12.4-1-21.6c1.2-9.2,6.6-22.3,6.5-23.3c-0.1-1-1.2-5.7-12.2-5.8c-11-0.1-20.5,2.1-21.6,5
	c-1.1,2.9-2.3,9.7-4.6,16.3c-2.3,6.6-29,66.2-36,81.6c-3.6,7.9-6.7,14.2-8.9,18.5c0,0,0,0,0,0s-0.1,0.3-0.4,0.8
	c-1.9,3.7-3,5.7-3,5.7s0,0,0,0.1c-1.5,2.7-3.1,5.2-3.9,5.2c-0.6,0-1.7-7.2,0.2-17c4-20.7,13.5-52.9,13.4-54c0-0.6,1.8-6.2-6.2-9.1
	c-7.8-2.9-10.6,1.9-11.3,1.9c-0.7,0-1.2,1.7-1.2,1.7s8.7-36.2-16.6-36.2c-15.8,0-37.6,17.3-48.4,32.9c-6.8,3.7-21.3,11.6-36.8,20.1
	c-5.9,3.3-12,6.6-17.7,9.7c-0.4-0.4-0.8-0.9-1.2-1.3c-30.6-32.7-87.2-55.8-84.8-99.7c0.9-16,6.4-58,108.7-109
	C233.9,19,300.9,30.5,312.5,56c16.6,36.4-35.9,104-122.9,113.8c-33.2,3.7-50.6-9.1-55-13.9c-4.6-5-5.3-5.3-7-4.3c-2.8,1.5-1,6,0,8.6
	c2.6,6.8,13.3,18.8,31.4,24.7c16,5.2,54.9,8.1,102-10.1c52.7-20.4,93.9-77.1,81.8-124.6C330.7,2,250.7-13.9,175,13
	C130,29,81.2,54.2,46.1,87c-41.7,39-48.3,72.9-45.6,87.1c9.7,50.4,79.2,83.2,107,107.5c-1.4,0.8-2.7,1.5-3.8,2.1
	c-13.9,6.9-66.9,34.6-80.1,63.9c-15,33.2,2.4,57,13.9,60.2c35.7,9.9,72.4-7.9,92.1-37.3c19.7-29.4,17.3-67.6,8.2-85.1
	c-0.1-0.2-0.2-0.4-0.4-0.6c3.6-2.1,7.3-4.3,10.9-6.4c7.1-4.2,14.1-8.1,20.1-11.3c-3.4,9.3-5.9,20.4-7.1,36.4
	c-1.5,18.8,6.2,43.2,16.3,52.8c4.5,4.2,9.8,4.3,13.2,4.3c11.8,0,17.1-9.8,23-21.4c7.2-14.2,13.7-30.7,13.7-30.7s-8.1,44.6,13.9,44.6
	c8,0,16.1-10.4,19.7-15.7c0,0.1,0,0.1,0,0.1s0.2-0.3,0.6-1c0.8-1.3,1.3-2.1,1.3-2.1s0-0.1,0-0.2c3.2-5.6,10.4-18.3,21.1-39.4
	c13.8-27.2,27.1-61.2,27.1-61.2s1.2,8.3,5.3,22.1c2.4,8.1,7.4,17,11.4,25.6c-3.2,4.5-5.2,7-5.2,7s0,0,0.1,0.1
	c-2.6,3.4-5.4,7.1-8.5,10.7c-10.9,13-23.9,27.9-25.7,32.2c-2.1,5.1-1.6,8.8,2.4,11.8c2.9,2.2,8.1,2.5,13.4,2.2
	c9.8-0.7,16.7-3.1,20.1-4.6c5.3-1.9,11.5-4.8,17.3-9.1c10.7-7.9,17.2-19.2,16.6-34.1c-0.3-8.2-3-16.4-6.3-24.1
	c1-1.4,1.9-2.8,2.9-4.2c16.9-24.7,30-51.8,30-51.8s1.2,8.3,5.3,22.1c2,7,6.1,14.6,9.7,22c-15.9,12.9-25.7,27.9-29.2,37.7
	c-6.3,18.2-1.4,26.4,7.9,28.3c4.2,0.9,10.2-1.1,14.6-3c5.6-1.8,12.2-4.9,18.5-9.5c10.7-7.9,21-18.9,20.4-33.8
	c-0.3-6.8-2.1-13.5-4.6-20c13.5-5.6,30.9-8.7,53.1-6.1c47.6,5.6,57,35.3,55.2,47.8c-1.8,12.5-11.8,19.3-15.1,21.4
	c-3.3,2.1-4.4,2.8-4.1,4.3c0.4,2.2,2,2.1,4.8,1.7c3.9-0.7,25-10.1,25.9-33.1C548.9,267.8,520.9,235.7,471.4,236z M104.2,359.8
	C88.4,377,66.4,383.5,56.9,378c-10.2-5.9-6.2-31.3,13.2-49.5c11.8-11.1,27-21.4,37.1-27.7c2.3-1.4,5.7-3.4,9.8-5.9
	c0.7-0.4,1.1-0.6,1.1-0.6l0,0c0.8-0.5,1.6-1,2.4-1.5C127.6,318.8,120.8,341.7,104.2,359.8z M219.2,281.6c-5.5,13.4-17,47.7-24,45.8
	c-6-1.6-9.7-27.6-1.2-53.3c4.3-12.9,13.4-28.3,18.7-34.3c8.6-9.6,18.1-12.8,20.4-8.9C236,236,222.6,273.2,219.2,281.6z M314.1,327
	c-2.3,1.2-4.5,2-5.5,1.4c-0.7-0.4,1-2,1-2s11.9-12.8,16.6-18.6c2.7-3.4,5.9-7.4,9.3-11.9c0,0.4,0,0.9,0,1.3
	C335.5,312.5,320.7,322.8,314.1,327z M387.3,310.3c-1.7-1.2-1.4-5.2,4.3-17.7c2.2-4.9,7.4-13.1,16.3-21c1,3.2,1.7,6.3,1.6,9.2
	C409.4,300.1,395.6,307.3,387.3,310.3z"/>
<g>
</g>
<g>
</g>
<g>
</g>
<g>
</g>
<g>
</g>
<g>
</g>
</svg>

<?xml version="1.0" encoding="UTF-8" standalone="no"?>
<!DOCTYPE svg PUBLIC "-//W3C//DTD SVG 1.1//EN" "http://www.w3.org/Graphics/SVG/1.1/DTD/svg11.dtd">
<svg width="100%" height="100%" viewBox="0 0 548 548" version="1.1" xmlns="http://www.w3.org/2000/svg" xmlns:xlink="http://www.w3.org/1999/xlink" xml:space="preserve" xmlns:serif="http://www.serif.com/" style="fill-rule:evenodd;clip-rule:evenodd;stroke-linejoin:round;stroke-miterlimit:2;">
    <g transform="matrix(1,0,0,1,0,68.6)">
        <path d="M471.4,236C452.3,236.1 435.7,240.7 421.8,247.5C416.7,237.4 411.6,228.4 410.7,221.8C409.7,214.1 408.5,209.4 409.7,200.2C410.9,191 416.3,177.9 416.2,176.9C416.1,175.9 415,171.2 404,171.1C393,171 383.5,173.2 382.4,176.1C381.3,179 379.2,185.6 377.8,192.4C375.9,202.4 355.8,238.1 344.3,256.8C340.6,249.5 337.4,243.1 336.7,238C335.7,230.3 334.5,225.6 335.7,216.4C336.9,207.2 342.3,194.1 342.2,193.1C342.1,192.1 341,187.4 330,187.3C319,187.2 309.5,189.4 308.4,192.3C307.3,195.2 306.1,202 303.8,208.6C301.5,215.2 274.8,274.8 267.8,290.2C264.2,298.1 261.1,304.4 258.9,308.7C258.9,308.7 258.8,309 258.5,309.5C256.6,313.2 255.5,315.2 255.5,315.2L255.5,315.3C254,318 252.4,320.5 251.6,320.5C251,320.5 249.9,313.3 251.8,303.5C255.8,282.8 265.3,250.6 265.2,249.5C265.2,248.9 267,243.3 259,240.4C251.2,237.5 248.4,242.3 247.7,242.3C247,242.3 246.5,244 246.5,244C246.5,244 255.2,207.8 229.9,207.8C214.1,207.8 192.3,225.1 181.5,240.7C174.7,244.4 160.2,252.3 144.7,260.8C138.8,264.1 132.7,267.4 127,270.5C126.6,270.1 126.2,269.6 125.8,269.2C95.2,236.5 38.6,213.4 41,169.5C41.9,153.5 47.4,111.5 149.7,60.5C233.9,19 300.9,30.5 312.5,56C329.1,92.4 276.6,160 189.6,169.8C156.4,173.5 139,160.7 134.6,155.9C130,150.9 129.3,150.6 127.6,151.6C124.8,153.1 126.6,157.6 127.6,160.2C130.2,167 140.9,179 159,184.9C175,190.1 213.9,193 261,174.8C313.7,154.4 354.9,97.7 342.8,50.2C330.7,2 250.7,-13.9 175,13C130,29 81.2,54.2 46.1,87C4.4,126 -2.2,159.9 0.5,174.1C10.2,224.5 79.7,257.3 107.5,281.6C106.1,282.4 104.8,283.1 103.7,283.7C89.8,290.6 36.8,318.3 23.6,347.6C8.6,380.8 26,404.6 37.5,407.8C73.2,417.7 109.9,399.9 129.6,370.5C149.3,341.1 146.9,302.9 137.8,285.4C137.7,285.2 137.6,285 137.4,284.8C141,282.7 144.7,280.5 148.3,278.4C155.4,274.2 162.4,270.3 168.4,267.1C165,276.4 162.5,287.5 161.3,303.5C159.8,322.3 167.5,346.7 177.6,356.3C182.1,360.5 187.4,360.6 190.8,360.6C202.6,360.6 207.9,350.8 213.8,339.2C221,325 227.5,308.5 227.5,308.5C227.5,308.5 219.4,353.1 241.4,353.1C249.4,353.1 257.5,342.7 261.1,337.4L261.1,337.5C261.1,337.5 261.3,337.2 261.7,336.5C262.5,335.2 263,334.4 263,334.4L263,334.2C266.2,328.6 273.4,315.9 284.1,294.8C297.9,267.6 311.2,233.6 311.2,233.6C311.2,233.6 312.4,241.9 316.5,255.7C318.9,263.8 323.9,272.7 327.9,281.3C324.7,285.8 322.7,288.3 322.7,288.3L322.8,288.4C320.2,291.8 317.4,295.5 314.3,299.1C303.4,312.1 290.4,327 288.6,331.3C286.5,336.4 287,340.1 291,343.1C293.9,345.3 299.1,345.6 304.4,345.3C314.2,344.6 321.1,342.2 324.5,340.7C329.8,338.8 336,335.9 341.8,331.6C352.5,323.7 359,312.4 358.4,297.5C358.1,289.3 355.4,281.1 352.1,273.4C353.1,272 354,270.6 355,269.2C371.9,244.5 385,217.4 385,217.4C385,217.4 386.2,225.7 390.3,239.5C392.3,246.5 396.4,254.1 400,261.5C384.1,274.4 374.3,289.4 370.8,299.2C364.5,317.4 369.4,325.6 378.7,327.5C382.9,328.4 388.9,326.4 393.3,324.5C398.9,322.7 405.5,319.6 411.8,315C422.5,307.1 432.8,296.1 432.2,281.2C431.9,274.4 430.1,267.7 427.6,261.2C441.1,255.6 458.5,252.5 480.7,255.1C528.3,260.7 537.7,290.4 535.9,302.9C534.1,315.4 524.1,322.2 520.8,324.3C517.5,326.4 516.4,327.1 516.7,328.6C517.1,330.8 518.7,330.7 521.5,330.3C525.4,329.6 546.5,320.2 547.4,297.2C548.9,267.8 520.9,235.7 471.4,236ZM104.2,359.8C88.4,377 66.4,383.5 56.9,378C46.7,372.1 50.7,346.7 70.1,328.5C81.9,317.4 97.1,307.1 107.2,300.8C109.5,299.4 112.9,297.4 117,294.9C117.7,294.5 118.1,294.3 118.1,294.3C118.9,293.8 119.7,293.3 120.5,292.8C127.6,318.8 120.8,341.7 104.2,359.8ZM219.2,281.6C213.7,295 202.2,329.3 195.2,327.4C189.2,325.8 185.5,299.8 194,274.1C198.3,261.2 207.4,245.8 212.7,239.8C221.3,230.2 230.8,227 233.1,230.9C236,236 222.6,273.2 219.2,281.6ZM314.1,327C311.8,328.2 309.6,329 308.6,328.4C307.9,328 309.6,326.4 309.6,326.4C309.6,326.4 321.5,313.6 326.2,307.8C328.9,304.4 332.1,300.4 335.5,295.9L335.5,297.2C335.5,312.5 320.7,322.8 314.1,327ZM387.3,310.3C385.6,309.1 385.9,305.1 391.6,292.6C393.8,287.7 399,279.5 407.9,271.6C408.9,274.8 409.6,277.9 409.5,280.8C409.4,300.1 395.6,307.3 387.3,310.3Z" style="fill:rgb(205,103,153);fill-rule:nonzero;"/>
    </g>
</svg>
